!!!COM:	Bartok
!!!OTL:	339_Bar-35/37-38/1[11]-[12]5
**kern	**dynam	**kern	**kern	**kern
*part4	*part4	*part3	*part2	*part1
*staff4	*S	*staff3	*staff2	*staff1
*I"Violoncello	*	*I"Viola	*I"Violin II	*I"Violin I
*I'Vc.	*	*I'Vla.	*I'Vln. II	*I'Vln. I
*clefF4	*	*clefC3	*clefG2	*clefG2
*k[]	*	*k[]	*k[]	*k[]
*C:	*	*C:	*C:	*C:
*M3/8	*	*M3/8	*M3/8	*M3/8
=1	=1	=1	=1	=1
8DD^^L 8GG	<	8G^^L 8d	(16ffLL	(16aaLL
.	.	.	16gg)	16bbJ)
8CC#X 8GG#X	ff	8C#X 8G#X	(16aa-X	(8.ccc
.	.	.	16bb-XJ)	.
8DD#XJ 8AA#X	.	8A#XJ 8d#X	8bbnJ	.
.	.	.	.	16dddJk)
=2	=2	=2	=2	=2
4EE 4BB 4E	f	4B 4e	8dd#X 8ccc#X	8ddd#X
.	.	.	4r	4cc#X 4ddd#
[8FF#X [8C#X [8F#X	.	[8c#X [8f#X	.	.
=3	=3	=3	=3	=3
8FF#L] 8C#] 8F#]	.	8c#L] 8f#]	8r	8ddn~^^ 8eee
8GG#X 8D#X	.	8d#X 8g#X	4f#X 4gg#X	4cc#X 4ddd#X
8AAJ 8E	.	8eJ 8a	.	.
=4	=4	=4	=4	=4
8FF#XL 8C#X	.	8c#X 8f#X	8gn~^^ 8aa	8r
(8DDn [8AA	.	[4A [4d	4f#X 4gg#X	4cc#X 4ddd#X
8AAJ] 8Dn	.	.	.	.
=5	=5	=5	=5	=5
8DL) 8A	.	8AL] 8d]	8r	8ddn~^^ 8eee
8BB 8E	.	8B 8e	4f#X 4gg#X	4cc#X 4ddd#X
8FF#XJ 8BB	.	8F#XJ 8B	.	.
=6	=6	=6	=6	=6
(8CC#XL 8GG#X	.	(8G#XL 8c#X	8gn~^^ 8aa	8r
8G#X) 8c#X	.	8C#X)	4f#X 4gg#X	4c#X 4dd#X
8DD#XJ 8AA#X	.	8A#XJ 8d#X	.	.
=7	=7	=7	=7	=7
(8EE~^^L 8BB	.	4B~^^ 4e	8r	8dn~^^ 8ee
8E) 8B	.	.	4f#X 4g#X	4c#X 4dd#X
(8FF#XJ 8C#X	.	[8c#X [8f#X	.	.
=8	=8	=8	=8	=8
8F#XL) 8c#X	.	8c#L] 8f#]	8Gn~^^ 8a	8r
8GG#X 8D#X	.	8d#X 8g#X	4f#X 4g#X	4c#X 4dd#X
8AAJ 8E	.	8eJ 8a	.	.
=9	=9	=9	=9	=9
!!linebreak:original
8FF#XL 8C#X	.	8c#X 8f#X	8r	8dn~^^ 8ee
(8DDn 8AA	.	(4A 4d	4f#X 4g#X	4c#X 4dd#X
8DJ 8A	.	.	.	.
=10	=10	=10	=10	=10
8dL) 8a	.	8DL) 8A	8Gn~^^ 8a	8r
8E 8B	.	8B 8e	4f#X 4g#X	4c#X 4d#X
8BBJ 8F#X	.	8BJ 8f#X	.	.
=11	=11	=11	=11	=11
(8C#XL 8G#X	.	4g#X 4cc#X	8r	8dn~^^ 8e
8CC#X) 8GG#X	.	.	4f#X 4g#X	4c#X 4d#X
8D#XJ 8A#X	.	8d#X 8a#X	.	.
=12	=12	=12	=12	=12
(8E^^L 8B	.	4e 4b	8Gn~^^ 8a	8r
8EE) 8BB	ff	.	4f#X 4g#X	8gg#XL 8ccc#X
(8F#XJ 8c#X	.	[8c#X [8f#X	.	8ffJ 8bb
=13	=13	=13	=13	=13
.	.	.	.	8qa/ 8qee
8FF#XL) 8C#X	.	8c#L] 8f#]	8d~^^ 8e	4ee^^ 4aa
8G#X 8d#X	.	8d#X 8g#X	4c#X 4d#X	.
8AJ 8e	.	8eJ 8a	.	[8dd#X [8gg#X
=14	=14	=14	=14	=14
8F#X 8c#X	.	8c#X 8f#X	8r	8dd#L] 8gg#]
[4Dn [4A	.	[4dn [4a	4c#X 4d#X	8cc#X 8ff#X
.	.	.	.	8bJ 8ee
=15	=15	=15	=15	=15
8DL] 8A]	.	8dL] 8a]	8dn~^^ 8e	8dd#X 8gg#X
8B 8e	.	8B 8e	4c#X 4d#X	[4ff#X [4bb
8F#XJ 8B	.	8BJ 8f#X	.	.
=16	=16	=16	=16	=16
(8C#XL 8G#X	.	(8c#XL	8r	8ff#L] 8bb]
8c#X)	.	8g#X)	4c#X 4d#X	8ee 8aa
8d#XJ	.	8a#XJ	.	8aJ 8ddd
==	==	==	==	==
*-	*-	*-	*-	*-
!!!system-decoration: [(s1,s2,s3,s4)]
!!!ONB: Converted from MusicXML on 2019/06/05
